X: 16287
T: Griffenfeld
R: reel
M: 4/4
K: Amixolydian
|:ABcd e2 ge|feec AB~BA|~B2 G2 G2 Bd|c2 A2 A2 E2|
ABcd e2 ge|feec AB~BA|~B2 G2 G2 Bd|1 c2 A2 A2 E2:|2 c2 A2 AB~BA||
|:a4 a2 ba|g2 e2 e3 f|edcB cdfa|^g2 e2 ef~fe|
a2 aa a2 ba|(3gag (3fgf e3 f|edcA cBAG|A4 A4:|

